assets/img/components/component-general-header.svg

<svg width="577" height="145" viewBox="0 0 577 145" fill="none" xmlns="http://www.w3.org/2000/svg">
<path d="M105.125 145H0C0 64.9187 64.9186 0 145 0V105.125C145 127.147 127.147 145 105.125 145Z" fill="#286AD8"/>
<path d="M289 0V145H217.16C176.755 145 144 112.541 144 72.5C144 32.4594 176.755 2.23036e-05 217.16 2.23036e-05L289 0Z" fill="#286AD8"/>
<path d="M530.835 74.2495C548.853 74.2495 563.46 59.6427 563.46 41.6245C563.46 23.6062 548.853 8.99951 530.835 8.99951C512.817 8.99951 498.21 23.6062 498.21 41.6245C498.21 59.6427 512.817 74.2495 530.835 74.2495Z" fill="#286AD8"/>
<path d="M576.491 145H431.491V0L576.491 145Z" fill="#286AD8"/>
<path d="M360.046 145C400.086 145 432.546 112.541 432.546 72.5007C432.546 32.4603 400.086 0.000976562 360.046 0.000976562C320.005 0.000976562 287.546 32.4602 287.546 72.5006C287.546 112.541 320.005 145 360.046 145Z" fill="#286AD8"/>
<g style="mix-blend-mode:multiply" opacity="0.4">
<path d="M427.579 98.9224C420.212 117.737 405.21 132.721 386.384 140.065L318.819 72.5005L359.988 31.3315L427.579 98.9224Z" fill="#1545BB"/>
</g>
<path d="M355.555 72.4997L337.187 90.8673L318.819 72.4997L337.187 54.1321L355.555 72.4997ZM378.471 49.6987L360.103 31.3311L341.735 49.6987L360.103 68.0662L378.471 49.6987ZM341.735 95.3009L360.103 113.669L378.471 95.3009L360.103 76.9334L341.735 95.3009ZM382.904 54.1322L364.537 72.4998L382.904 90.8674L401.272 72.4998L382.904 54.1322Z" fill="#5187DF"/>
</svg>

<svg xmlns="http://www.w3.org/2000/svg" width="577" height="145" fill="none" viewBox="0 0 577 145"><path fill="#286ad8" d="M105.125 145H0C0 64.919 64.919 0 145 0v105.125C145 127.147 127.147 145 105.125 145"/><path fill="#286ad8" d="M289 0v145h-71.84C176.755 145 144 112.541 144 72.5S176.755 0 217.16 0zM530.835 74.25c18.018 0 32.625-14.607 32.625-32.626S548.853 9 530.835 9 498.21 23.606 498.21 41.624s14.607 32.625 32.625 32.625M576.491 145h-145V0z"/><path fill="#286ad8" d="M360.046 145c40.04 0 72.5-32.459 72.5-72.5S400.086.002 360.046.002s-72.5 32.46-72.5 72.5S320.005 145 360.046 145"/><path fill="#1545bb" d="M427.579 98.922c-7.367 18.815-22.369 33.799-41.195 41.143l-67.565-67.564 41.169-41.17z" opacity=".4" style="mix-blend-mode:multiply"/><path fill="#5187df" d="m355.555 72.5-18.368 18.367L318.819 72.5l18.368-18.368zm22.916-22.801L360.103 31.33 341.735 49.7l18.368 18.367zM341.735 95.3l18.368 18.368 18.368-18.368-18.368-18.368zm41.169-41.169L364.537 72.5l18.367 18.367L401.272 72.5z"/></svg>
